src/svg/white/mzc.svg

<svg xmlns="http://www.w3.org/2000/svg" width="32" height="32" viewBox="0 0 32 32"><path fill="#FFF" fill-rule="evenodd" d="M16,32 C7.163444,32 0,24.836556 0,16 C0,7.163444 7.163444,0 16,0 C24.836556,0 32,7.163444 32,16 C32,24.836556 24.836556,32 16,32 Z M16.8112203,11.5669779 C17.7899883,10.9252148 18.8513986,10.6043332 19.9954511,10.6043332 C21.8453374,10.6043332 24.3623958,11.7376695 24.3623958,16.6389811 C24.3623958,18.8839859 23.5529645,20.5507996 21.934103,21.6394236 C21.8415487,21.7016628 21.8184966,21.8249491 21.8826148,21.9147911 C21.9284356,21.978995 22.0088734,22.0110321 22.0879454,21.996571 C23.1341926,21.8052285 26,20.1611664 26,15.9030485 C26,12.7023163 24.5140258,9.35324768 21.7695224,9.35324768 C19.9780177,9.35324768 18.2252786,9.94120754 16.5113048,11.1171272 C15.6149412,9.70570908 14.3249713,9 12.641395,9 C9.88931008,9 6,11.6052017 6,16.1238283 C6,18.1818333 6.54081375,20.0118526 7.62244124,21.613886 L9.00227445,20.0095528 C8.20368966,18.7928108 7.80439727,17.311133 7.80439727,15.5645194 C7.80439727,12.9445991 9.76042456,10.3099602 12.2319939,10.3099602 C13.5214411,10.3099602 14.5323079,10.7065712 15.2645944,11.4997932 L15.2645944,13.4303147 L13.7786202,13.4303147 L12.777862,14.5783697 L15.2645944,14.5783697 L15.2645944,16.0207977 L14.4761183,16.0207977 L13.5056861,17.1688527 L15.2645944,17.1688527 L15.2645944,21.8493845 L16.5382866,20.1125834 L16.5382866,17.1688527 L17.3267627,17.1688527 L18.0849128,16.0207977 L16.5382866,16.0207977 L16.5382866,14.5783697 L18.0242608,14.5783697 L19.025019,13.4303147 L16.8112206,13.4303147 L16.8112206,11.5669777 Z"/></svg>

<svg xmlns="http://www.w3.org/2000/svg" width="32" height="32" viewBox="0 0 32 32"><path fill="#FFF" fill-rule="evenodd" d="M16 32C7.163 32 0 24.837 0 16S7.163 0 16 0s16 7.163 16 16-7.163 16-16 16zm.811-20.433a5.695 5.695 0 0 1 3.184-.963c1.85 0 4.367 1.134 4.367 6.035 0 2.245-.809 3.912-2.428 5a.194.194 0 0 0-.051.276.207.207 0 0 0 .205.082C23.134 21.805 26 20.16 26 15.903c0-3.2-1.486-6.55-4.23-6.55-1.792 0-3.545.588-5.259 1.764C15.615 9.706 14.325 9 12.641 9 9.89 9 6 11.605 6 16.124c0 2.058.54 3.888 1.622 5.49l1.38-1.604c-.798-1.217-1.198-2.699-1.198-4.445 0-2.62 1.956-5.255 4.428-5.255 1.29 0 2.3.397 3.033 1.19v1.93h-1.486l-1.001 1.148h2.487v1.443h-.789l-.97 1.148h1.759v4.68l1.273-1.736v-2.944h.789l.758-1.148h-1.547v-1.443h1.486l1.001-1.148h-2.214v-1.863z"/></svg>
